assets/transmission/mono.svg

<svg viewBox="0 0 24 24" xmlns="http://www.w3.org/2000/svg"><path d="m1.6956 9.46v12.794c0 .945.8847 1.709 1.7157 1.709h17.1573c.878 0 1.7157-.6098 1.7157-1.709v-12.7874c-2.3323.3753-4.6177.6233-6.863.7708v5.1471h3.4315l-6.8629 6.863-6.8628-6.863h3.4314v-5.0868c-2.339-.1207-4.6244-.3887-6.8428-.831h-.02v-.0068zm13.7258-9.4232v8.4177c2.2452-.1474 4.5306-.1675 6.8629-.5428.9383-.1474 1.7157-.8109 1.7157-1.8229v-3.8c0-1.012-.7841-1.6622-1.7157-1.8297-2.339-.429-4.6177-.2949-6.863-.4222zm-6.8629.0135c-2.3189.1407-4.5976.0267-6.8428.4087-.9383.1609-1.7157.8177-1.7157 1.8297v3.8001c0 1.012.7841 1.642 1.7157 1.823 2.2184.4423 4.5038.4758 6.8428.6031z"/></svg>

<svg xmlns="http://www.w3.org/2000/svg" viewBox="0 0 24 24"><path d="M1.696 9.46v12.794c0 .945.884 1.709 1.715 1.709H20.57c.878 0 1.715-.61 1.715-1.709V9.467a73 73 0 0 1-6.863.77v5.148h3.432l-6.863 6.863-6.863-6.863H8.56v-5.087a47.5 47.5 0 0 1-6.843-.831h-.02zM15.42.037v8.418c2.246-.148 4.531-.168 6.863-.543C23.223 7.764 24 7.1 24 6.089v-3.8c0-1.012-.784-1.662-1.716-1.83C19.945.03 17.667.164 15.421.037zM8.56.05C6.239.191 3.96.077 1.716.46.777.619 0 1.277 0 2.289v3.8C0 7.1.784 7.73 1.716 7.912c2.218.442 4.504.476 6.843.603z"/></svg>
